icons/chat-delete-fill.svg

<svg viewBox="0 0 24 24" fill="currentColor" xmlns="http://www.w3.org/2000/svg"><path d="M6.45455 19L2 22.5V4C2 3.44772 2.44772 3 3 3H21C21.5523 3 22 3.44772 22 4V18C22 18.5523 21.5523 19 21 19H6.45455ZM13.4142 11L15.8891 8.52513L14.4749 7.11091L12 9.58579L9.52513 7.11091L8.11091 8.52513L10.5858 11L8.11091 13.4749L9.52513 14.8891L12 12.4142L14.4749 14.8891L15.8891 13.4749L13.4142 11Z"/></svg>

<svg xmlns="http://www.w3.org/2000/svg" viewBox="0 0 24 24">
    <g>
        <path fill="none" d="M0 0h24v24H0z"/>
        <path d="M6.455 19L2 22.5V4a1 1 0 0 1 1-1h18a1 1 0 0 1 1 1v14a1 1 0 0 1-1 1H6.455zm6.96-8l2.474-2.475-1.414-1.414L12 9.586 9.525 7.11 8.111 8.525 10.586 11 8.11 13.475l1.414 1.414L12 12.414l2.475 2.475 1.414-1.414L13.414 11z"/>
    </g>
</svg>
